X: 36
T:Whisky Before Breakfast
R:Reel
Z:added by Alf Warnock
M:4/4
L:1/8
K:D
|:A,B,DE D3E|F2A2 B2A2|G2BG F2AF|EDEF EDB,D|
A,B,DE D3E|F2A2 B2A2|G2BG F2AF|EDEF D2D2:|
|:FGAB cdef|gfed cBA2|e2ee e2ef|gfed cBA2|
d2fd c2ec|BABc A2F2|G2BG F2AF|EDEF D2D2:|

